X: 30546
T: On The Run
R: reel
M: 4/4
K: Amajor
|:FcBA FBAF|ECB,C EFGE|FcBA Bcef|ecBA cBAG|
FcBA EFFF|ECB,C EFGE|FAAF BAFE|1 CFFE FB,CE:|2 CFFE FECB,||
A,3B, CEEC|F3E FGAB|cAFA BGEG|AAGA FECB,|
A,3B, CEEC|F3E FGAG|FAAF BAFE|CFFE FECB,|
A,3B, CEEC|F3E FGAB|cAFA BGEF|GBBG Bcec|
f3e fecB|ccBc AcGc|FAAF BAFE|CFFE F2FF|

